images/icon_2466.svg

<svg xmlns="http://www.w3.org/2000/svg"
 xmlns:xlink="http://www.w3.org/1999/xlink"
 width="44px" height="37px"  viewBox="0 0 44 37">
<path fill-rule="evenodd"  fill="#fff"
 d="M25.788208,24.168457 C28.325684,23.074707 30.328735,21.58545 31.79663,19.701172 C33.264404,17.816406 33.998413,15.765137 33.998413,13.54541 C33.998413,11.325684 33.264404,9.2734375 31.796265,7.38916 C30.328491,5.504883 28.325684,4.015625 25.787964,2.9213867 C23.250122,1.8276367 20.489868,1.2807617 17.506836,1.2807617 C14.524048,1.2807617 11.763672,1.8276367 9.22583,2.9213867 C6.6881104,4.015625 4.6853027,5.504883 3.2174072,7.38916 C1.7492676,9.2734375 1.0151367,11.325684 1.0151367,13.54541 C1.0151367,15.4453125 1.5704346,17.234375 2.6790771,18.911621 C3.7878418,20.58789 5.310547,22.001465 7.2470703,23.150879 C7.0909424,23.534668 6.930786,23.885254 6.7668457,24.205566 C6.602783,24.524414 6.407715,24.831543 6.1811523,25.127441 C5.954712,25.422852 5.779175,25.654297 5.654175,25.821777 C5.529175,25.989746 5.326172,26.225586 5.044922,26.52832 C4.763672,26.831543 4.5839844,27.03125 4.5061035,27.126953 C4.5061035,27.110352 4.4748535,27.146973 4.4123535,27.234863 C4.3497314,27.322754 4.314575,27.362305 4.306885,27.35498 C4.2990723,27.34668 4.2677,27.385742 4.213135,27.473633 C4.1584473,27.561523 4.1311035,27.605469 4.1311035,27.605469 C4.1311035,27.605469 4.07251,27.725098 4.07251,27.725098 C4.0490723,27.773438 4.0334473,27.8208 4.025635,27.868652 C4.0178223,27.916504 4.013916,27.96875 4.013916,28.024414 C4.013916,28.080078 4.0216064,28.131836 4.0374756,28.179688 C4.0688477,28.387695 4.1584473,28.554688 4.306885,28.683105 C4.455078,28.810547 4.61499,28.874512 4.7869873,28.874512 C4.7869873,28.874512 4.857422,28.874512 4.857422,28.874512 C5.6380615,28.762695 6.3098145,28.634766 6.8719482,28.490723 C9.276978,27.85205 11.447876,26.830566 13.384277,25.424805 C14.789673,25.680176 16.164062,25.808105 17.50708,25.808105 C20.489868,25.809082 23.250488,25.262207 25.788208,24.168457 ZM41.330566,25.054688 C42.439697,23.385742 42.993896,21.59375 42.993896,19.677246 C42.993896,17.71289 42.407593,15.875488 41.236816,14.166992 C40.06543,12.458496 38.472168,11.037109 36.457886,9.90332 C36.81665,11.101074 36.996338,12.314453 36.996338,13.544434 C36.996338,15.684082 36.473755,17.711914 35.426758,19.628418 C34.380493,21.544434 32.881104,23.237305 30.929077,24.707031 C29.117554,26.047852 27.055908,27.077637 24.744507,27.796387 C22.433594,28.515137 20.020752,28.874512 17.506226,28.874512 C17.037964,28.874512 16.350708,28.842285 15.445068,28.778809 C18.583862,30.886719 22.269653,31.94043 26.501587,31.94043 C27.84497,31.94043 29.219116,31.812988 30.624756,31.557129 C32.561035,32.96289 34.732056,33.984375 37.137085,34.623535 C37.69922,34.76709 38.37085,34.89502 39.151733,35.006836 C39.338867,35.02246 39.510986,34.966797 39.667236,34.838867 C39.823364,34.711426 39.924927,34.536133 39.971924,34.3125 C39.964355,34.216797 39.971924,34.16455 39.995117,34.15674 C40.01819,34.149414 40.01416,34.097168 39.983276,34.000977 C39.952393,33.905273 39.936768,33.85742 39.936768,33.85742 C39.936768,33.85742 39.878418,33.73828 39.878418,33.73828 C39.86206,33.706055 39.835693,33.66211 39.796387,33.606445 C39.757324,33.55078 39.726196,33.510742 39.702637,33.48633 C39.679565,33.46289 39.644653,33.42285 39.597534,33.367188 C39.551025,33.31201 39.51953,33.27539 39.503784,33.259766 C39.42566,33.163574 39.246338,32.964355 38.96521,32.660645 C38.683838,32.35742 38.4812,32.12207 38.3562,31.954102 C38.2312,31.786621 38.05542,31.555176 37.829224,31.259766 C37.602783,30.964355 37.40735,30.657227 37.24353,30.337402 C37.079468,30.018066 36.919434,29.666992 36.763306,29.283691 C38.699585,28.1333 40.222046,26.723633 41.330566,25.054688 Z"/>
</svg>

<svg xmlns="http://www.w3.org/2000/svg" width="44" height="37"><path fill-rule="evenodd" fill="#363636" d="M25.788 24.168c2.538-1.093 4.54-2.583 6.009-4.467 1.467-1.885 2.201-3.936 2.201-6.156 0-2.22-.734-4.272-2.202-6.156-1.468-1.884-3.47-3.373-6.008-4.468-2.538-1.093-5.298-1.64-8.281-1.64-2.983 0-5.743.547-8.281 1.64-2.538 1.095-4.54 2.584-6.009 4.468-1.468 1.884-2.202 3.937-2.202 6.156 0 1.9.555 3.69 1.664 5.367 1.109 1.676 2.632 3.09 4.568 4.239-.156.384-.316.734-.48 1.055-.164.318-.36.626-.586.921-.226.296-.402.527-.527.695a9.316 9.316 0 01-.61.706c-.28.304-.46.503-.538.599 0-.017-.031.02-.094.108-.062.088-.097.127-.105.12-.008-.008-.04.03-.094.119l-.082.131-.058.12a.52.52 0 00-.047.144.971.971 0 00-.012.155.49.49 0 00.023.156.798.798 0 00.27.503.723.723 0 00.48.192h.07c.781-.112 1.453-.24 2.015-.384 2.405-.639 4.576-1.66 6.512-3.066 1.406.255 2.78.383 4.123.383 2.983.001 5.743-.546 8.281-1.64zm15.543.887c1.109-1.67 1.663-3.461 1.663-5.378 0-1.964-.586-3.802-1.757-5.51-1.172-1.709-2.765-3.13-4.78-4.264.36 1.198.54 2.411.54 3.641 0 2.14-.523 4.168-1.57 6.084-1.047 1.916-2.546 3.61-4.498 5.079-1.811 1.34-3.873 2.37-6.184 3.09a24.231 24.231 0 01-7.239 1.078c-.468 0-1.155-.033-2.06-.096 3.138 2.108 6.824 3.161 11.056 3.161 1.343 0 2.717-.127 4.123-.383 1.936 1.406 4.107 2.427 6.512 3.067.562.143 1.234.271 2.015.383a.699.699 0 00.515-.168.89.89 0 00.305-.526c-.008-.096 0-.148.023-.156.023-.008.02-.06-.012-.156l-.046-.144-.059-.119a1.106 1.106 0 00-.082-.132 1.075 1.075 0 00-.093-.12 2.472 2.472 0 01-.105-.119 16.39 16.39 0 00-.632-.707 9.37 9.37 0 01-.61-.706c-.125-.167-.3-.399-.527-.694a6.046 6.046 0 01-.585-.923c-.165-.319-.325-.67-.48-1.053 1.936-1.15 3.458-2.56 4.567-4.23z"/></svg>
